!!!OTL: Beim Spazierengehn.
!!!OTL-incipit:KOMMT LASST UNS SPAZIEREN
!!!COM: Volksweise
!!!ARE: Europa, Mitteleuropa, Deutschland
!!!SCT: F0317
!!!TXL: @@DE
!!!YEM: Copyright 1995, estate of Helmut Schaffrath.
**kern	**text
*ICvox	*
*clefG2	*
*M6/8	*
*k[f#c#g#]	*
*A:	*
!LO:TX:a:t=P:only the highest voice encoded:problem	!
{8e	Kommt,
=1	=1
4a	laßt
8a	uns
4cc#	gehn
8cc#	ſpa-
=2	=2
4.ee	-ʒie-
4cc#}	-ren
{8ee	durch
=3	=3
4dd	den
8dd	viel
(8cc#L	grü-
8bJ)	.
8cc#	-nen
=4	=4
4.b/	Wald;
4r}	.
{8b/	die
=5	=5
4dd	Vö-
8dd	-gel
4cc#	mu-
8cc#	-ſi-
=6	=6
4.ff#	-ci-
4ee}	-ren,
{8cc#	daß
=7	=7
(8b/L	Berg
8ddJ)	.
8cc#/	und
8b/L	Thäl
8aJ	.
8g#	er-
=8	=8
4.a	-ſchallt.
4r}	.
==	==
!!!AGN: Jugend - Lied, Natur
!!!ONB: ESAC (Essen Associative Code) Database: FINK
!!!AMT: compound duple
!!!AIN: vox
!!!EED: Helmut Schaffrath
!!!EEV: 1.0
!!!GTL: Jugendlieder
!!Text: Volkslied nach M. Opitz
!!!source: Musikalischer Hausschatz der Deutschen. Eine Sammlung von über 1000 Liedern und Gesängen mit Singstimmen und Klavierbegleitung. Leipzig, Litterarisches Verlags-Haus.
!!!page: 190
!!!URL-scan: https://www.digitale-sammlungen.de/en/view/bsb11144622?page=188,189
!!!ENC: Anna Maria Matuszewska
!!!EEV: 2024/07/30
*-	*-